X:78
T:Rostiboli
M:6/4
L:1/8
C:Giovani Ambrogio (Guglielmo Ebreo) c.1455
S:arr. Monica Celio (copyright 1995. I think this applies to her three part arrangement)
Z:ps
K:F
FGABc2A2ABcd | c2cBAG FG A2BA | G2GFED C2 CDEF | D2DEFGA2ABc2 | c2cBAGE2G2FD | FG
ABc2A2ABcd | c2cBAG FG A2cA | A2 ABcdc2cBAG | F2FED2C2DED2 | CDEFGAA4A2 ||
B4c2d4c2 | d2dcc2d2dcBA | G4D2C4C2 | D2DEFG B2 Bcdc | B2d2 cB d2dc A2 | D2DEF2G2GA
Bc | c2AGG2A2Bcd2 | cBAGF2A4A2 |]
